X: 348
T: A Short Journey
R: jig
M: 6/8
K: Bminor
~F2d dd/d/d|~G2d dd/d/d|~F2d dd/d/d|({d}e2)A AGE|
~F2d dd/d/d|~G2d dd/d/d|eff ~f2g|a2e ecG|
EFd dd/d/d|~G2d dd/d/d|~F2d dd/d/d|({d}e2)A AGE|
EFd dd/d/d|FGd dd/d/d|eff ~f2g|a2e ecG|
~F3 FED|(G3 G)FG|~A3 Adc|({A}B3) zzz|
~B3 Bcd|cAF BAB|c2(=c c)de|({A}~B3) BAG|
A2(a a)gf|~g3 ge/f/g|({g}a2)(a a)zg|efg afA|
AB2 zAA|c2A AA/A/A|d2A AA/A/A|gzz zzz|
~F2d dd/d/d|~G2d dd/d/d|~F2d dd/d/d|({d}e2)A AGE|
~F2d dd/d/d|~G2d dd/d/d|eff ~f2g|a2e ecG|
EFd fed|FGd bgd|~F2d fed|({d}e2)A AGE|
~F2d dd/d/d|gzd dd/d/d|eff ~f2g|a2e ecG|
EFF FED|(G3 G)FG|~A3 Adc|({A}B3) zzz|
~B3 Bcd|cAF BAB|c2(=c c)de|({A}~B3) BAG|
a2(a a)gf|~g3 ge/f/g|({g}a2)(a a)zg|efg afA|
ABd dd/d/d|Bcd dd/d/d|d2d dd/d/d|({fg}b)zz zzz|
~F2f ff/f/f|({a}b3 b)ag|({g}a3 a)gf|({d}e2)A AGE|
({E}F2)f ff/f/f|({a}b2)g gg/g/g|({g}a2)({f}g g)({e}f2)|({d}e2)(d d2)z|
~F2f ff/f/f|~G2g ~g3|~F2f ff/f/f|({d}e2)A AGE|
~F2f ff/f/f|~G2g gg/g/g|eff ~f2g|a2e ecG|
~F3 FED|(G3 G)FG|~A3 Adc|({A}B3) zzz|
~B3 Bcd|cAF BAB|c2(=c c)de|({A}~B3) BAG|
A2(a a)gf|~g3 ge/f/g|({G}A2)(a a)zg|efg afA|
ABd dd/d/d|Bcd dd/d/d|d2d dd/d/d|({fg}b)zz zzz||

